X: 1
T: Rally 'Round the Flag
R: march
Z: 2014 John Chambers <jc:trillian.mit.edu>
N: In a set for Cranky Ingenuity (Contra)
S: http://www.kangaroovalleyfolkfestival.com.au/USERIMAGES/Bush%20Dance%2014-05-03.pdf
M: 4/4
L: 1/8
K: D
de |\
"D"f>g fe d2Bc | "G"d>e dc B4 | "D"A2A>G FAde | f2gf "A"e2de |
"D"f>g fe d2Bc | "G"d>e dc B4 | "D"A2A>G FAdf | "A"e4 "D"d2 ||
za |\
"D"a2fg ab2a | a2fg a3a | a2fg ab2a | ab/a/ fd "A"e2de |
"D"f>g fe d2Bc | "G"d>e dc B4 | "D"A2A>G FAdf | "A"e4 "D"d2 |]
